casedrop/img/balance/images/qiwi.svg

<svg width="56" height="56" viewBox="0 0 56 56" fill="none" xmlns="http://www.w3.org/2000/svg">
<path d="M28 56C43.464 56 56 43.464 56 28C56 12.536 43.464 0 28 0C12.536 0 0 12.536 0 28C0 43.464 12.536 56 28 56Z" fill="#FF8C00"/>
<path d="M39.5325 34.0287C39.6217 34.7305 39.4222 35.0017 39.2 35.0017C38.9777 35.0017 38.6663 34.7305 38.3338 34.188C38.0013 33.6455 37.8665 33.033 38.045 32.718C38.1553 32.5132 38.4002 32.4222 38.689 32.536C39.2665 32.7635 39.4888 33.6437 39.5325 34.0287ZM36.4227 35.5688C37.1105 36.1568 37.3118 36.834 36.9548 37.3328C36.8427 37.4637 36.7029 37.568 36.5455 37.6382C36.3881 37.7085 36.217 37.7428 36.0448 37.7388C35.6611 37.7425 35.2894 37.6056 35 37.3537C34.3787 36.8112 34.2003 35.9065 34.5993 35.4095C34.6844 35.3041 34.7934 35.2204 34.9172 35.1653C35.041 35.1102 35.1762 35.0854 35.3115 35.0927C35.6667 35.0927 36.0675 35.2502 36.4227 35.567V35.5688ZM12.25 26.0645C12.25 17.4668 19.0925 10.5 27.5345 10.5C35.9783 10.5 42.8207 17.4685 42.8207 26.0645C42.8209 28.8704 42.0776 31.6263 40.6665 34.0515C40.621 34.1198 40.509 34.097 40.488 34.006C39.956 30.1822 37.667 28.0787 34.335 27.4452C34.0445 27.3997 34.0008 27.2178 34.3787 27.174C35.4008 27.083 36.8445 27.1058 37.5988 27.2423C37.6448 26.8438 37.6676 26.4429 37.667 26.0417C37.667 20.363 33.1345 15.7482 27.5572 15.7482C21.9817 15.7482 17.4492 20.363 17.4492 26.0417C17.4492 31.7222 21.9817 36.337 27.5572 36.337H28.0245C27.8658 35.4184 27.7984 34.4864 27.8232 33.5545C27.846 32.921 27.9808 32.83 28.2468 33.327C29.6468 35.7945 31.6453 38.0118 35.5565 38.892C38.7555 39.6183 41.9545 40.4548 45.3985 44.912C45.7082 45.297 45.2427 45.703 44.8875 45.3862C41.377 42.2188 38.178 41.1775 35.2677 41.1775C32.0005 41.202 29.7798 41.6325 27.5345 41.6325C19.0925 41.6325 12.25 34.6605 12.25 26.0627V26.0645Z" fill="white"/>
</svg>

<svg width="56" height="56" fill="none" xmlns="http://www.w3.org/2000/svg"><path d="M28 56c15.464 0 28-12.536 28-28S43.464 0 28 0 0 12.536 0 28s12.536 28 28 28z" fill="#FF8C00"/><path d="M39.532 34.029c.09.701-.11.973-.332.973-.222 0-.534-.272-.866-.814-.333-.543-.468-1.155-.289-1.47.11-.205.355-.296.644-.182.578.227.8 1.108.843 1.493zm-3.11 1.54c.689.588.89 1.265.533 1.764a1.162 1.162 0 01-.91.406A1.568 1.568 0 0135 37.354c-.621-.543-.8-1.447-.4-1.944a.856.856 0 01.712-.317c.355 0 .756.157 1.11.474v.002zM12.25 26.064c0-8.597 6.843-15.564 15.285-15.564 8.443 0 15.286 6.968 15.286 15.564a15.88 15.88 0 01-2.154 7.987c-.046.069-.158.046-.179-.045-.532-3.824-2.821-5.927-6.153-6.56-.29-.046-.334-.228.044-.272 1.022-.091 2.465-.068 3.22.068.046-.398.069-.8.068-1.2 0-5.679-4.532-10.294-10.11-10.294-5.575 0-10.108 4.615-10.108 10.294 0 5.68 4.533 10.295 10.108 10.295h.468a14.135 14.135 0 01-.202-2.783c.023-.633.158-.724.424-.227 1.4 2.468 3.398 4.685 7.31 5.565 3.198.726 6.398 1.563 9.841 6.02.31.385-.155.791-.51.474-3.511-3.167-6.71-4.209-9.62-4.209-3.267.025-5.488.456-7.733.456-8.442 0-15.285-6.973-15.285-15.57v.002z" fill="#fff"/></svg>
